icon-svg/nanoleaf-holiday-string.svg

<svg xmlns="http://www.w3.org/2000/svg" fill="#44739e" viewBox="0 0 24 24"><path d="M4.146 12.632a.24.24 0 0 0 .093.063l.029.012-.187.166L5.11 14.12l.307-.027.007.007 4.419 5.092 1.585-1.262-4.536-5.093.057-.373-1.091-1.174-.136.121-.005-.036v-.018a.26.26 0 0 0-.06-.114l-.871-.943a.251.251 0 0 0-.354-.014l-1.139 1.05a.25.25 0 0 0-.015.354Zm-.774-1.209 1.139-1.05a.132.132 0 0 1 .1-.035.133.133 0 0 1 .093.043l.867.941a.13.13 0 0 1 .035.1.133.133 0 0 1-.025.073.1.1 0 0 1-.018.019L4.42 12.56a.133.133 0 0 1-.188-.008l-.867-.941a.13.13 0 0 1-.032-.061.127.127 0 0 1 .039-.127m15.815-1.359a.248.248 0 0 0-.174.081l-.867.941a.246.246 0 0 0-.06.115v.053l-.135-.121-1.101 1.174.057.374-.006.006-4.53 5.086 1.585 1.263 4.426-5.1.307.027 1.029-1.246-.187-.167.03-.011a.25.25 0 0 0 .092-.064l.868-.941a.251.251 0 0 0-.014-.354l-1.14-1.05a.25.25 0 0 0-.18-.066m1.283 1.3a.2.2 0 0 1 0 .034.13.13 0 0 1-.032.061l-.868.942a.134.134 0 0 1-.1.043.136.136 0 0 1-.09-.035l-1.139-1.05a.13.13 0 0 1-.043-.093.136.136 0 0 1 .019-.074.12.12 0 0 1 .016-.021l.868-.942a.133.133 0 0 1 .188-.008l1.139 1.05a.135.135 0 0 1 .042.088zm-8.156 6.414.014-.015.865-.971 1.992-4.26.3-.058.648-1.48-.225-.109.025-.02a.24.24 0 0 0 .072-.086l.577-1.143a.25.25 0 0 0 .014-.191.246.246 0 0 0-.125-.145l-1.383-.7a.252.252 0 0 0-.337.111l-.576 1.143a.25.25 0 0 0-.027.126v.054l-.163-.079-.728 1.428.157.343v.009L10.8 17.161l.689.774-.3.239 1.139.475.294-.629zm1.968-7.869.577-1.143a.136.136 0 0 1 .053-.056.13.13 0 0 1 .024-.011.134.134 0 0 1 .1.008l1.383.7a.136.136 0 0 1 .067.078.2.2 0 0 1 .006.034.13.13 0 0 1-.014.067l-.578 1.14a.13.13 0 0 1-.077.067.15.15 0 0 1-.042.007.13.13 0 0 1-.06-.015l-1.383-.7a.134.134 0 0 1-.066-.078.13.13 0 0 1 .01-.098m-1.618 8.148-.014-.012-.253.541.265-.01zm-1.893-9.693a.244.244 0 0 0-.079.174l-.043 1.28a.26.26 0 0 0 .029.126l.009.015.02.031h-.182l-.061 1.6.287.247-.087 5.178.1.116 1.915-3.96.005-1.346.251-.18-.034-1.615-.251-.005.015-.028a.24.24 0 0 0 .029-.108l.043-1.28a.25.25 0 0 0-.067-.179.254.254 0 0 0-.175-.08l-1.544-.05a.25.25 0 0 0-.18.064m1.817.144a.11.11 0 0 1 .02.028.144.144 0 0 1 .016.067l-.043 1.28a.134.134 0 0 1-.133.129h-.005L10.9 9.959a.132.132 0 0 1-.093-.042.134.134 0 0 1-.036-.1l.043-1.28a.14.14 0 0 1 .043-.093.132.132 0 0 1 .095-.035l1.548.052a.13.13 0 0 1 .088.047m-1.95 10.101-.001.045 1.462-.057-.949-.396zM6.591 8.767a.25.25 0 0 0-.014.191l.4 1.215a.255.255 0 0 0 .071.108l.014.012.029.022-.171.06.5 1.522.354.132v.008l1.008 2.87 1.838 2.063.045-2.67-1.076-2.954.173-.256-.593-1.5-.236.083v-.031a.25.25 0 0 0-.011-.112l-.4-1.215a.25.25 0 0 0-.316-.159l-1.47.489a.247.247 0 0 0-.145.122m1.652-.5a.13.13 0 0 1 .1.007.1.1 0 0 1 .029.02.12.12 0 0 1 .038.057l.4 1.215a.135.135 0 0 1-.084.169l-1.47.488a.12.12 0 0 1-.042.007.14.14 0 0 1-.06-.014.13.13 0 0 1-.054-.056.3.3 0 0 1-.011-.024l-.4-1.215a.134.134 0 0 1 .008-.1.132.132 0 0 1 .077-.066zm8.04.892.209.106a.291.291 0 0 1 .128.389l-.577 1.146a.27.27 0 0 1-.059.079l.2.1-.671 1.534-.3.058-.841 1.8.647.379 1.395-1.567.409-.795-.013-.087.129-.139 1.651-3.218.369-.082.7-1.44-.159-.083.031-.018.016-.009a.26.26 0 0 0 .085-.1l.568-1.146a.25.25 0 0 0 .013-.191.252.252 0 0 0-.127-.145L18.7 5.045a.252.252 0 0 0-.336.114l-.566 1.148a.24.24 0 0 0-.025.11v.032l-.223-.115-.792 1.408.136.277-.005.009Zm1.615-2.8.567-1.148a.133.133 0 0 1 .045-.052.2.2 0 0 1 .031-.015.13.13 0 0 1 .1.007l1.389.685a.13.13 0 0 1 .067.076.134.134 0 0 1-.006.1l-.567 1.148a.13.13 0 0 1-.076.068.16.16 0 0 1-.043.007.14.14 0 0 1-.045-.008l-.014-.006-1.389-.685a.13.13 0 0 1-.067-.077.134.134 0 0 1 .01-.1Zm-9.432-.484a.255.255 0 0 0 .054.118l.012.013.025.026-.178.034.265 1.58.331.183v.009l.425 2.224.406 1.038-.165.244.014.071 1.017 2.782.039-2.34-.286-.246.063-1.659h.149a.29.29 0 0 1-.027-.133l.043-1.28a.285.285 0 0 1 .092-.2.288.288 0 0 1 .207-.078h.087l-.17-.835.21-.227-.362-1.575-.246.047.009-.031a.25.25 0 0 0 .007-.112l-.218-1.262a.25.25 0 0 0-.1-.162.244.244 0 0 0-.187-.042l-1.527.263a.25.25 0 0 0-.162.1.244.244 0 0 0-.042.187Zm-.079-1.381a.13.13 0 0 1 .086-.054L10 4.176a.13.13 0 0 1 .1.023.15.15 0 0 1 .026.024.135.135 0 0 1 .028.062l.218 1.262v.013a.136.136 0 0 1-.111.141l-1.526.263h-.023a.136.136 0 0 1-.077-.025.13.13 0 0 1-.051-.073v-.013l-.22-1.26a.13.13 0 0 1 .023-.099M4.3 7.214a.25.25 0 0 0 .085.1l.015.009.032.018-.162.083.7 1.44.368.082v.008l2.542 4.933.839.943-.973-2.771-.355-.131-.516-1.578.141-.049a.28.28 0 0 1-.072-.116L6.54 8.97a.284.284 0 0 1 .016-.221.288.288 0 0 1 .167-.149l.533-.177-.216-.404.136-.277-.793-1.408-.223.115v-.032a.244.244 0 0 0-.026-.11l-.566-1.148a.246.246 0 0 0-.144-.126.25.25 0 0 0-.191.012l-1.39.685a.253.253 0 0 0-.114.336Zm-.468-1.3a.13.13 0 0 1 .068-.078l1.39-.685a.127.127 0 0 1 .1-.007.2.2 0 0 1 .032.015.133.133 0 0 1 .045.052l.566 1.148a.134.134 0 0 1-.06.179l-1.39.685a.13.13 0 0 1-.058.014.16.16 0 0 1-.043-.007.136.136 0 0 1-.082-.068l-.565-1.148a.134.134 0 0 1-.007-.102Zm8.748 2.409a.294.294 0 0 1 .12.077.284.284 0 0 1 .078.207l-.043 1.28a.29.29 0 0 1-.02.1h.226l.035 1.674-.251.18-.005 1.244.657-1.359-.156-.344.205-.4.551-1.082.135.065a.28.28 0 0 1 .031-.132l.227-.45.415-2.183.331-.183.265-1.581L15.2 5.4l.025-.026.012-.014a.24.24 0 0 0 .054-.117l.218-1.262a.25.25 0 0 0-.043-.187.244.244 0 0 0-.162-.1l-1.523-.264a.253.253 0 0 0-.29.2l-.217 1.27a.25.25 0 0 0 .006.112l.009.03-.246-.046-.361 1.575.209.227v.01zm.809-3.406.218-1.262a.135.135 0 0 1 .029-.063.11.11 0 0 1 .025-.023.132.132 0 0 1 .1-.023l1.526.263a.132.132 0 0 1 .086.055.13.13 0 0 1 .023.1l-.218 1.262a.13.13 0 0 1-.054.086.13.13 0 0 1-.056.023h-.043L13.5 5.07a.133.133 0 0 1-.109-.153Zm8.577 9.717-.774-1.341a.25.25 0 0 0-.152-.117.254.254 0 0 0-.191.025l-1.108.64a.24.24 0 0 0-.082.077l-.018.026-.122-.219-1.441.731-.041.306h-.009l-.591.319-3.476 4-1.258-1v.525l-.289.011.564 1.162 5.963-3.31.352.137 1.384-.807-.088-.159h.036a.25.25 0 0 0 .143-.033l1.109-.64a.25.25 0 0 0 .116-.152.246.246 0 0 0-.027-.181m-.088.16a.133.133 0 0 1-.062.081l-1.109.64a.13.13 0 0 1-.066.018.1.1 0 0 1-.035 0 .133.133 0 0 1-.066-.04l-.015-.022-.774-1.341a.133.133 0 0 1 .048-.182l1.109-.64a.128.128 0 0 1 .1-.013.13.13 0 0 1 .081.062l.775 1.341a.137.137 0 0 1 .014.096m-11.278 3.9v-.053l-.76.605-.012-.014-2.612-3.01-1.251-.673-.041-.306-1.441-.73-.122.219-.018-.027a.24.24 0 0 0-.082-.076l-1.108-.641a.251.251 0 0 0-.343.092l-.774 1.342a.243.243 0 0 0-.025.19.25.25 0 0 0 .116.152l1.109.64a.25.25 0 0 0 .143.033h.036l-.088.159 1.384.807.352-.137h.008l5.955 3.305.885-1.823-.184-.1zm-6.351-3.782-.774 1.342a.136.136 0 0 1-.081.062.14.14 0 0 1-.035 0 .13.13 0 0 1-.066-.018l-1.109-.64a.13.13 0 0 1-.062-.081.137.137 0 0 1 .013-.1l.775-1.341a.13.13 0 0 1 .081-.062.137.137 0 0 1 .1.013l1.109.64a.134.134 0 0 1 .049.185m9.035 1.778 1.707-1.917-.636-.373zm3.234-3.631.347-.391-.033-.221z"/></svg>

<?xml version="1.0" encoding="UTF-8"?>
<svg width="24px" fill="#44739e" height="24px" viewBox="0 0 24 24" version="1.1" xmlns="http://www.w3.org/2000/svg" xmlns:xlink="http://www.w3.org/1999/xlink">
            <path d="m 4.146,12.632 a 0.24,0.24 0 0 0 0.093,0.063 L 4.268,12.707 4.081,12.873 5.11,14.12 5.417,14.093 5.424,14.1 9.843,19.192 11.428,17.93 6.892,12.837 6.949,12.464 5.858,11.29 5.722,11.411 5.717,11.375 V 11.357 A 0.262,0.262 0 0 0 5.657,11.243 L 4.786,10.3 A 0.251,0.251 0 0 0 4.432,10.286 l -1.139,1.05 A 0.25,0.25 0 0 0 3.278,11.69 Z m -0.774,-1.209 1.139,-1.05 a 0.132,0.132 0 0 1 0.1,-0.035 0.133,0.133 0 0 1 0.093,0.043 l 0.867,0.941 a 0.13,0.13 0 0 1 0.035,0.1 0.133,0.133 0 0 1 -0.025,0.073 0.107,0.107 0 0 1 -0.018,0.019 L 4.42,12.56 A 0.133,0.133 0 0 1 4.232,12.552 L 3.365,11.611 A 0.129,0.129 0 0 1 3.333,11.55 0.127,0.127 0 0 1 3.372,11.423 Z m 15.815,-1.359 a 0.248,0.248 0 0 0 -0.174,0.081 l -0.867,0.941 a 0.246,0.246 0 0 0 -0.06,0.115 v 0.017 0.036 l -0.135,-0.121 -1.101,1.174 0.057,0.374 -0.006,0.006 -4.53,5.086 1.585,1.263 4.426,-5.1 0.307,0.027 1.029,-1.246 -0.187,-0.167 0.03,-0.011 a 0.25,0.25 0 0 0 0.092,-0.064 l 0.868,-0.941 A 0.251,0.251 0 0 0 20.507,11.18 l -1.14,-1.05 a 0.249,0.249 0 0 0 -0.18,-0.066 z m 1.283,1.3 a 0.2,0.2 0 0 1 0,0.034 0.129,0.129 0 0 1 -0.032,0.061 l -0.868,0.942 a 0.134,0.134 0 0 1 -0.1,0.043 0.136,0.136 0 0 1 -0.09,-0.035 l -1.139,-1.05 a 0.131,0.131 0 0 1 -0.043,-0.093 0.136,0.136 0 0 1 0.019,-0.074 0.116,0.116 0 0 1 0.016,-0.021 l 0.868,-0.942 a 0.133,0.133 0 0 1 0.188,-0.008 l 1.139,1.05 a 0.135,0.135 0 0 1 0.042,0.088 z m -8.156,6.414 0.014,-0.015 0.865,-0.971 1.992,-4.26 0.3,-0.058 0.648,-1.48 -0.225,-0.109 0.025,-0.02 a 0.239,0.239 0 0 0 0.072,-0.086 L 16.582,9.636 A 0.249,0.249 0 0 0 16.596,9.445 0.246,0.246 0 0 0 16.471,9.3 L 15.088,8.6 A 0.252,0.252 0 0 0 14.751,8.711 L 14.175,9.854 A 0.252,0.252 0 0 0 14.148,9.98 v 0.018 0.036 l -0.163,-0.079 -0.728,1.428 0.157,0.343 v 0.009 l -2.614,5.426 0.689,0.774 -0.3,0.239 1.139,0.475 0.294,-0.629 z m 1.968,-7.869 0.577,-1.143 a 0.136,0.136 0 0 1 0.053,-0.056 0.128,0.128 0 0 1 0.024,-0.011 0.134,0.134 0 0 1 0.1,0.008 l 1.383,0.7 a 0.136,0.136 0 0 1 0.067,0.078 0.186,0.186 0 0 1 0.006,0.034 0.131,0.131 0 0 1 -0.014,0.067 l -0.578,1.14 a 0.131,0.131 0 0 1 -0.077,0.067 0.154,0.154 0 0 1 -0.042,0.007 0.13,0.13 0 0 1 -0.06,-0.015 l -1.383,-0.7 a 0.134,0.134 0 0 1 -0.066,-0.078 0.131,0.131 0 0 1 0.01,-0.098 z m -1.618,8.148 -0.014,-0.012 -0.253,0.541 0.265,-0.01 z M 10.771,8.364 a 0.244,0.244 0 0 0 -0.079,0.174 l -0.043,1.28 a 0.26,0.26 0 0 0 0.029,0.126 l 0.009,0.015 0.02,0.031 h -0.182 l -0.061,1.6 0.287,0.247 -0.087,5.178 0.1,0.116 1.915,-3.96 0.005,-1.346 0.251,-0.18 -0.034,-1.615 -0.251,-0.005 0.015,-0.028 a 0.242,0.242 0 0 0 0.029,-0.108 l 0.043,-1.28 A 0.25,0.25 0 0 0 12.67,8.43 0.254,0.254 0 0 0 12.495,8.35 L 10.951,8.3 a 0.25,0.25 0 0 0 -0.18,0.064 z m 1.817,0.144 a 0.11,0.11 0 0 1 0.02,0.028 0.144,0.144 0 0 1 0.016,0.067 l -0.043,1.28 a 0.134,0.134 0 0 1 -0.133,0.129 H 12.443 L 10.9,9.959 a 0.132,0.132 0 0 1 -0.093,-0.042 0.134,0.134 0 0 1 -0.036,-0.1 l 0.043,-1.28 A 0.14,0.14 0 0 1 10.857,8.444 0.132,0.132 0 0 1 10.952,8.409 L 12.5,8.461 a 0.13,0.13 0 0 1 0.088,0.047 z m -1.95,10.101 -10e-4,0.045 1.462,-0.057 -0.949,-0.396 z M 6.591,8.767 A 0.249,0.249 0 0 0 6.577,8.958 l 0.4,1.215 a 0.255,0.255 0 0 0 0.071,0.108 l 0.014,0.012 0.029,0.022 -0.171,0.06 0.5,1.522 0.354,0.132 v 0.008 L 8.782,14.907 10.62,16.97 10.665,14.3 9.589,11.346 9.762,11.09 9.169,9.59 8.933,9.673 V 9.642 A 0.25,0.25 0 0 0 8.922,9.53 L 8.522,8.315 A 0.25,0.25 0 0 0 8.206,8.156 L 6.736,8.645 A 0.247,0.247 0 0 0 6.591,8.767 Z m 1.652,-0.5 a 0.131,0.131 0 0 1 0.1,0.007 0.1,0.1 0 0 1 0.029,0.02 0.122,0.122 0 0 1 0.038,0.057 l 0.4,1.215 A 0.135,0.135 0 0 1 8.726,9.735 l -1.47,0.488 A 0.123,0.123 0 0 1 7.214,10.23 0.139,0.139 0 0 1 7.154,10.216 0.13,0.13 0 0 1 7.1,10.16 0.256,0.256 0 0 1 7.089,10.136 l -0.4,-1.215 a 0.134,0.134 0 0 1 0.008,-0.1 0.132,0.132 0 0 1 0.077,-0.066 z m 8.04,0.892 0.209,0.106 A 0.291,0.291 0 0 1 16.62,9.654 L 16.043,10.8 a 0.272,0.272 0 0 1 -0.059,0.079 l 0.2,0.1 -0.671,1.534 -0.3,0.058 -0.841,1.8 0.647,0.379 1.395,-1.567 0.409,-0.795 -0.013,-0.087 0.129,-0.139 1.651,-3.218 0.369,-0.082 0.7,-1.44 L 19.5,7.339 19.531,7.321 19.547,7.312 a 0.26,0.26 0 0 0 0.085,-0.1 L 20.2,6.066 A 0.249,0.249 0 0 0 20.213,5.875 0.252,0.252 0 0 0 20.086,5.73 L 18.7,5.045 a 0.252,0.252 0 0 0 -0.336,0.114 l -0.566,1.148 a 0.243,0.243 0 0 0 -0.025,0.11 V 6.449 L 17.55,6.334 16.758,7.742 16.894,8.019 16.889,8.028 Z m 1.615,-2.8 0.567,-1.148 a 0.133,0.133 0 0 1 0.045,-0.052 0.177,0.177 0 0 1 0.031,-0.015 0.129,0.129 0 0 1 0.1,0.007 l 1.389,0.685 a 0.129,0.129 0 0 1 0.067,0.076 0.134,0.134 0 0 1 -0.006,0.1 L 19.524,7.16 a 0.131,0.131 0 0 1 -0.076,0.068 v 0 A 0.161,0.161 0 0 1 19.405,7.235 0.142,0.142 0 0 1 19.36,7.227 L 19.346,7.221 17.957,6.536 A 0.131,0.131 0 0 1 17.89,6.459 0.134,0.134 0 0 1 17.9,6.359 Z M 8.466,5.875 A 0.255,0.255 0 0 0 8.52,5.993 l 0.012,0.013 0.025,0.026 -0.178,0.034 0.265,1.58 0.331,0.183 v 0.009 l 0.425,2.224 0.406,1.038 -0.165,0.244 0.014,0.071 1.017,2.782 0.039,-2.34 -0.286,-0.246 0.063,-1.659 h 0.149 A 0.291,0.291 0 0 1 10.61,9.819 l 0.043,-1.28 a 0.285,0.285 0 0 1 0.092,-0.2 0.288,0.288 0 0 1 0.207,-0.078 h 0.087 L 10.869,7.426 11.079,7.199 10.717,5.624 10.471,5.671 10.48,5.64 A 0.251,0.251 0 0 0 10.487,5.528 L 10.269,4.266 A 0.25,0.25 0 0 0 10.169,4.104 0.244,0.244 0 0 0 9.982,4.062 L 8.455,4.325 A 0.25,0.25 0 0 0 8.293,4.425 0.244,0.244 0 0 0 8.251,4.612 Z M 8.387,4.494 A 0.13,0.13 0 0 1 8.473,4.44 L 10,4.176 a 0.13,0.13 0 0 1 0.1,0.023 0.148,0.148 0 0 1 0.026,0.024 0.135,0.135 0 0 1 0.028,0.062 l 0.218,1.262 V 5.56 A 0.136,0.136 0 0 1 10.261,5.701 L 8.735,5.964 H 8.712 A 0.136,0.136 0 0 1 8.635,5.939 0.131,0.131 0 0 1 8.584,5.866 V 5.853 L 8.364,4.593 A 0.13,0.13 0 0 1 8.387,4.494 Z M 4.3,7.214 a 0.252,0.252 0 0 0 0.085,0.1 L 4.4,7.323 4.432,7.341 4.27,7.424 4.97,8.864 5.338,8.946 V 8.954 L 7.88,13.887 8.719,14.83 7.746,12.059 7.391,11.928 6.875,10.35 7.016,10.301 A 0.281,0.281 0 0 1 6.944,10.185 L 6.54,8.97 A 0.284,0.284 0 0 1 6.556,8.749 0.288,0.288 0 0 1 6.723,8.6 L 7.256,8.423 7.04,8.019 7.176,7.742 6.383,6.334 6.16,6.449 V 6.417 A 0.244,0.244 0 0 0 6.134,6.307 L 5.568,5.159 A 0.246,0.246 0 0 0 5.424,5.033 0.249,0.249 0 0 0 5.233,5.045 L 3.843,5.73 A 0.253,0.253 0 0 0 3.729,6.066 Z M 3.832,5.914 A 0.129,0.129 0 0 1 3.9,5.836 L 5.29,5.151 A 0.127,0.127 0 0 1 5.39,5.144 0.187,0.187 0 0 1 5.422,5.159 0.133,0.133 0 0 1 5.467,5.211 L 6.033,6.359 A 0.134,0.134 0 0 1 5.973,6.538 L 4.583,7.223 A 0.13,0.13 0 0 1 4.525,7.237 0.155,0.155 0 0 1 4.482,7.23 0.136,0.136 0 0 1 4.4,7.162 L 3.835,6.014 A 0.134,0.134 0 0 1 3.828,5.912 Z M 12.58,8.323 A 0.294,0.294 0 0 1 12.7,8.4 0.284,0.284 0 0 1 12.778,8.607 l -0.043,1.28 a 0.289,0.289 0 0 1 -0.02,0.1 h 0.226 l 0.035,1.674 -0.251,0.18 -0.005,1.244 0.657,-1.359 -0.156,-0.344 0.205,-0.4 0.551,-1.082 0.135,0.065 A 0.279,0.279 0 0 1 14.143,9.833 L 14.37,9.383 14.785,7.2 15.116,7.017 15.381,5.436 15.2,5.4 15.225,5.374 15.237,5.36 A 0.242,0.242 0 0 0 15.291,5.243 L 15.509,3.981 A 0.249,0.249 0 0 0 15.466,3.794 0.244,0.244 0 0 0 15.304,3.694 L 13.781,3.43 a 0.253,0.253 0 0 0 -0.29,0.2 L 13.274,4.9 a 0.25,0.25 0 0 0 0.006,0.112 l 0.009,0.03 -0.246,-0.046 -0.361,1.575 0.209,0.227 v 0.01 z m 0.809,-3.406 0.218,-1.262 a 0.135,0.135 0 0 1 0.029,-0.063 0.109,0.109 0 0 1 0.025,-0.023 0.132,0.132 0 0 1 0.1,-0.023 l 1.526,0.263 a 0.132,0.132 0 0 1 0.086,0.055 0.13,0.13 0 0 1 0.023,0.1 l -0.218,1.262 a 0.13,0.13 0 0 1 -0.054,0.086 v 0 A 0.131,0.131 0 0 1 15.068,5.335 H 15.025 L 13.5,5.07 A 0.133,0.133 0 0 1 13.391,4.917 Z m 8.577,9.717 -0.774,-1.341 a 0.251,0.251 0 0 0 -0.152,-0.117 0.254,0.254 0 0 0 -0.191,0.025 l -1.108,0.64 a 0.242,0.242 0 0 0 -0.082,0.077 l -0.018,0.026 -0.122,-0.219 -1.441,0.731 -0.041,0.306 h -0.009 l -0.591,0.319 -3.476,4 -1.258,-1 v 0.525 l -0.289,0.011 0.564,1.162 5.963,-3.31 0.352,0.137 1.384,-0.807 -0.088,-0.159 h 0.036 a 0.248,0.248 0 0 0 0.143,-0.033 l 1.109,-0.64 a 0.249,0.249 0 0 0 0.116,-0.152 0.246,0.246 0 0 0 -0.027,-0.181 z m -0.088,0.16 a 0.133,0.133 0 0 1 -0.062,0.081 l -1.109,0.64 a 0.128,0.128 0 0 1 -0.066,0.018 0.106,0.106 0 0 1 -0.035,0 v 0 A 0.133,0.133 0 0 1 20.54,15.493 L 20.525,15.471 19.751,14.13 a 0.133,0.133 0 0 1 0.048,-0.182 l 1.109,-0.64 a 0.128,0.128 0 0 1 0.1,-0.013 0.13,0.13 0 0 1 0.081,0.062 l 0.775,1.341 a 0.137,0.137 0 0 1 0.014,0.096 z M 10.6,18.694 V 18.641 L 9.84,19.246 9.828,19.232 7.216,16.222 5.965,15.549 5.924,15.243 4.483,14.513 4.361,14.732 4.343,14.705 A 0.239,0.239 0 0 0 4.261,14.629 L 3.153,13.988 A 0.251,0.251 0 0 0 2.81,14.08 l -0.774,1.342 a 0.243,0.243 0 0 0 -0.025,0.19 0.249,0.249 0 0 0 0.116,0.152 l 1.109,0.64 a 0.248,0.248 0 0 0 0.143,0.033 h 0.036 l -0.088,0.159 1.384,0.807 0.352,-0.137 h 0.008 l 5.955,3.305 0.885,-1.823 -0.184,-0.1 z M 4.249,14.912 3.475,16.254 a 0.136,0.136 0 0 1 -0.081,0.062 0.139,0.139 0 0 1 -0.035,0 0.128,0.128 0 0 1 -0.066,-0.018 l -1.109,-0.64 a 0.13,0.13 0 0 1 -0.062,-0.081 0.137,0.137 0 0 1 0.013,-0.1 L 2.91,14.136 a 0.13,0.13 0 0 1 0.081,-0.062 0.137,0.137 0 0 1 0.1,0.013 l 1.109,0.64 a 0.134,0.134 0 0 1 0.049,0.185 z m 9.035,1.778 1.707,-1.917 -0.636,-0.373 z m 3.234,-3.631 0.347,-0.391 -0.033,-0.221 z"/>

</svg>
